X:1
T:Vaghe Ninfe
T:Vaghe Ninfe
T:Giovanni Maria Artusi
T:Source : Canzonette a 4 voci---Libro primo---Venetia---G.Vincenti---1598. Editor : André Vierendeels (22/02/14).
C:Giovanni Maria Artusi
%%score [ 1 2 3 4 ]
L:1/8
Q:1/4=80
M:4/4
K:C
V:1 treble nm="Canto 1" snm="C 1"
V:2 treble nm="Canto 2" snm="C 2"
V:3 treble nm="Alto" snm="A"
V:4 treble-8 nm="Tenor" snm="T"
V:1
 d2 c2 B2 AG | d4 G4 | d2 c2 B2 AG | d4 B4 | B2 e2 d4 | e4 e4 | d3 d d2 d2 | d8 | d8 | z4 d2 c2 | %10
w: Va- ghe Nin- f'e Pa-|sto- ri,|va- ghe Nin- f'e Pa-|sto- ri,|e Pa- sto-|ri, ch'i|vo- stri'ar- den- ti'a-|mo-|ri,|va- ghe|
 B2 AG B3 c | A2 A2 d2 c2 | B2 AG d4 | G2 c4 B2 | c4 G2 c2 | B3 B B2 B2 | A2 B2 A4 | B4 B2 B2 | %18
w: Nin- f'e Pa- sto- *|* ri, va- ghe|Nin- f'e Pa- sto-|ri, e Pa-|sto- ri, ch'i|vo- stri'ar- den- ti'a-|mo- * *|ri, sot- to|
 B4 A2 G2 | c4 c2 cc | c4 B2 A2 | B4 B4 | d2 d2 d4 | A2 B2 c3 c | c2 G2 A4 | B4 c4 | c2 c2 A4 | %27
w: l'om- bre de|fag- gi, sot- to|l'om- bre de|fag- gi,|sot- to l'om-|bre de fag- gi'e|de gl'a- be-|ti, can-|ta- te lie-|
 B2 c2 d4- | d2 d2 d4 | d8 | d2 d2 d4 | A2 B2 c2 c2 | e2 e2 e4 | B2 c2 d4 | B4 z4 | z4 e4 | %36
w: ti, can- ta-|* te lie-|ti,|sot- to l'om-|bre de fag- gi,|sot- to l'om-|bre de fag-|gi,|e|
 e2 B2 d4 | d4 e4 | fe fg f2 e2 | d2 c2 B2 AG | A2 B2 A4 | B8 |] %42
w: de gl'a- be-|ti, can|ta- * * * * *|* te lie- * *||ti.|
V:2
 z4 d2 c2 | B2 AG B3 c | A2 A2 d2 c2 | B2 AG d4 | G2 c4 B2 | c4 G2 c2 | B3 B B2 B2 | A2 B2 A4 | %8
w: Va- ghe|Nin- f'e Pa- sto- *|* ri, va- ghe|Nin- f'e Pa- sto-|ri, e Pa-|sto- ri, ch'i|vo- str'ar- den- ti'a-|mo- * *|
 B8 | d2 c2 B2 AG | d4 G4 | d2 c2 B2 AG | d4 B4 | B2 e2 d4 | e4 e4 | d3 d d2 d2 | d8 | d8 | %18
w: ri,|va- ghe Nin- f'e Pa-|sto- ri,|va- ghe Nin- f'e Pa-|sto- ri,|e Pa- sto-|ri, ch'i|vo- stri'ar- den- ti'a-|mo-|ri,|
 d2 d2 d4 | A2 B2 c2 c2 | e2 e2 e4 | B2 c2 d4 | B4 z4 | z4 e4 | e2 B2 d4 | d4 e4 | fe fg f2 e2 | %27
w: sot- to l'om-|bre de fag- gi,|sot- to l'om-|bre de fag-|gi,|e|de gl'a- be-|ti, can-|ta- * * * * *|
 d2 c2 B2 AG | A2 B2 A4 | B4 B2 B2 | B4 A2 G2 | c4 c2 cc | c4 B2 A2 | B4 B4 | d2 d2 d4 | %35
w: * te lie- * *||ti, sot- to|l'om- bre de|fag- gi, sot- to|l'om- bre de|fag- gi,|sot- to l'om-|
 A2 B2 c3 c | c2 G2 A4 | B4 c4 | c2 c2 A4 | B2 c2 d4- | d2 d2 d4 | d8 |] %42
w: bre de fag- gi'e|de- gl'a- be-|ti, can-|ta- te lie-|ti, can- ta-|* te lie-|ti.|
V:3
 z8 | G2 F2 E2 DC | D4 G,4- | G,2 G4 F2 | E2 DC G4 | C4 G4 | G3 G G2 G2 | ^F2 G4 F2 | G8 | z8 | %10
w: |Va- ghe Nin- f'e Pa-|sto- ri,|_ Va- ghe|Nin- f'e Pa- sto-|ri, ch'i|vo- str'ar- den- ti'a-|mo- * *|ri,||
 G2 F2 E2 DC | D4 G,4- | G,2 G4 F2 | E2 DC G4 | C4 G4 | G3 G G2 G2 | ^F2 G4 F2 | G8 | z8 | %19
w: va- ghe Nin- f'e Pa-|sto- ri,|_ va- ghe|Nin- f'e Pa- sto-|ri, ch'i|vo- str'ar- den- ti'a-|mo- * *|ri,||
 z4 A2 A2 | A4 E2 F2 | G4 G4 | z4 F4 | A2 A2 G4 | G2 G4 ^F2 | G4 G4 | A4 c2 c2 | B2 A2 G2 ^FE | %28
w: sot- to|l'om- bre de|fag- gi,|de|fag- gi'e, de|gl'a- be- *|ti, can-|ta- te, can-|ta- te lie- * *|
 ^F2 G4 F2 | G8 | z8 | z4 A2 A2 | A4 E2 F2 | G4 G4 | z4 F4 | A2 A2 G4 | G2 G4 ^F2 | G4 G4 | %38
w: |ti,||sot- to|l'om- bre de|fag- gi,|de|fag- gi'e de|gl'a- be- *|ti, can-|
 A4 c2 c2 | B2 A2 G2 FE | ^F2 G4 F2 | G8 |] %42
w: ta- te, can-|ta- te lie- * *||ti.|
V:4
 z8 | z8 | z8 | z8 | z8 | z4 c4 | G3 G G2 G2 | d8 | G8 | z8 | z8 | z8 | z8 | z8 | z4 c4 | %15
w: |||||Ch'i|vo- str'ar- den- ti'a-|mo-|ri,||||||ch'i|
 G3 G G2 G2 | d8 | G4 g2 g2 | g4 d2 e2 | f4 f4 | z8 | z4 g2 g2 | g4 d2 e2 | f4 c4 | c2 e2 d4 | %25
w: vo- str'ar- den- ti'a-|mo-|ri, sot- to|l'om- bre de|fa- gi,||sot- to|l'om- bre de|fag- gi'e|gl'a- be- *|
 G4 c4 | F8 | G8 | d8 | G4 g2 g2 | g4 d2 e2 | f4 f4 | z8 | z4 g2 g2 | g4 d2 e2 | f4 c4 | c2 e2 d4 | %37
w: ti, can|ta-|ta|lie-|ti, sot- to|l'om- bre de|fag- gi,||sot- to|l'om- bre de|fag- gi'e|de gl'a- be-|
 G4 c4 | F8 | G8 | d8 | G8 |] %42
w: ti, can-|ta-|te|lie-|ti.|

